svg/white/colx.svg

<svg height="32" viewBox="0 0 32 32" width="32" xmlns="http://www.w3.org/2000/svg"><path d="m16 32c-8.836556 0-16-7.163444-16-16s7.163444-16 16-16 16 7.163444 16 16-7.163444 16-16 16zm9.6782723-18.7170157-1.6884817-1.6884817c-.5178011-.517801-1.2044503-.7992146-1.9361257-.7992146h-.2589005v-.2701571c0-.4727749-.1125654-.92303666-.3489529-1.32827226-.123822-.23638744-.2814136-.45026178-.4727749-.63036649l-1.6884816-1.68848168c-.5178011-.51780105-1.2044503-.79921466-1.9361257-.79921466h-7.77827223c-.73167539 0-1.41832461.28141361-1.93612566.79921466l-1.68848167 1.68848168c-.51780105.5065445-.79921466 1.19319371-.79921466 1.92486915l-.04502618 7.2942408c-.01125654.7316754.28141361 1.4408377.79921466 1.9586387l1.68848168 1.6884817c.51780104.5178011 1.20445026.7992147 1.93612565.7992147h.3039267v.270157c0 .4727749.11256545.9230367.34895291 1.3282723.123822.2363874.2814136.4502618.4727748.6303665l1.6884817 1.6884817c.5178011.517801 1.2044503.7992146 1.9361257.7992146h7.7895288c.7316754 0 1.4183246-.2814136 1.9361256-.7992146l1.6884817-1.6884817c.517801-.5178011.7992147-1.2044503.7992147-1.9361257v-7.3167539c-.0112566-.7316754-.2926702-1.4183246-.8104712-1.9248691zm-16.15314141 6.4725131c-.07879581 0-.14633508-.0337697-.19136126-.0787958l-.84424083-.8442409-.84424084-.8442408c-.01125655-.0112565-.02251309-.0225131-.03376964-.0450262-.02251308-.0337696-.03376963-.0675392-.04502617-.1013089 0-.0225131 0-.0337696 0-.0562827v-7.2829843c0-.0787958.03376963-.1463351.07879581-.1913613l1.68848167-1.68848163c.02251309-.02251309.04502618-.03376963.06753927-.04502618.04502618-.02251309.09005236-.03376963.13507853-.03376963h7.78952877c.0450262 0 .0787958.01125654.123822.03376963.0337697.01125655.0562827.03376963.0787958.05628272l1.6884817 1.68848169c.0225131.0225131.0450262.0450262.0562827.0787958.0112566.0112565.0112566.0225131.0112566.0337696 0 .0112566.0112565.0225131.0112565.0337697 0 .0112565.0112566.0450261.0112566.0675392v.3602095c0 .1575916-.123822.270157-.2701571.270157h-1.3507853c-.0787959 0-.1463351-.0337696-.1913613-.0787958l-.765445-.765445h-6.5963351l-.28141362.2814136-.38272251.3827225v6.3374346l.66413613.6641361h6.5850785l.7654451-.7767016s.0112565-.0112565.0112565-.0112565c.0225131-.0112566.0450262-.0337697.0675393-.0450262.0337696-.0225131.0787958-.0225131.1125654-.0225131h1.3507854c.0900523 0 .1688481.0450262.2251308.1125655.0337697.0450261.0562828.1013089.0562828.1575916v.3827225c0 .0787958-.0337697.1463351-.0787958.1913613l-.8442409.8442408-.8442408.8442408c-.0112566.0112566-.0337697.0225131-.0450262.0337697 0 0-.0112565.0112565-.0225131.0112565-.0112565.0112565-.0225131.0112565-.0337696.0112565-.0112566 0-.0112566 0-.0225131.0112566-.0112566 0-.0225131.0112565-.0337696.0112565h-.0112566c-.0112565 0-.0112565 0-.0225131 0-.0112565 0-.0225131 0-.0337696 0h-7.78952881zm14.49842931 2.7465968c0 .0787959-.0337696.1463351-.0787958.1913613l-1.6884817 1.6884817c-.0225131.0225131-.0450262.0337696-.0675392.0450262-.0450262.022513-.0900524.0337696-.1350786.0337696h-7.7895288c-.0450262 0-.0787958-.0112566-.123822-.0337696-.0337696-.0112566-.0562827-.0337697-.0787958-.0562828l-1.6884817-1.6884816c-.022513-.0225131-.0450261-.0450262-.0562827-.0787959-.0112565-.0112565-.0112565-.022513-.0112565-.0337696 0-.0112565-.0112566-.0225131-.0112566-.0337696 0-.0112566-.0112565-.0450262-.0112565-.0675393v-.3602094c0-.1575916.123822-.2701571.2701571-.2701571h1.3507853c.0787958 0 .1463351.0337696.1913613.0787958l.765445.7654451h6.5850785l.2814136-.2814137.3827225-.3827225v-6.3374345l-.6641361-.6641362h-6.573822l-.765445.7767016s-.0112565.0112566-.0112565.0112566c-.0225131.0112565-.0450262.0337696-.0675393.0450261-.0337696.0225131-.0787958.0225131-.1125655.0225131h-1.3507853c-.0900524 0-.1688482-.0450261-.2251309-.1125654-.0337696-.0450262-.0562827-.1013089-.0562827-.1575916v-.3827226c0-.0787958.0337696-.146335.0787958-.1913612l.8442408-.8442408.8442409-.8442409c.0112565-.0112565.0337696-.0225131.0450262-.0337696 0 0 .0112565-.0112566.022513-.0112566.0112566-.0112565.0225131-.0112565.0337697-.0112565.0112565 0 .0112565 0 .0225131-.0112566.0112565 0 .0225131-.0112565.0337696-.0112565h.0112565.0225131.0337697 7.7782722c.0787958 0 .1463351.0337696.1913613.0787958l.8442408.8442409.8442409.8442408c.0112565.0112565.022513.0225131.0337696.0450262.0225131.0337696.0337696.0675392.0450262.1013089v.0562827c.0112565-.0225131.0112565 7.2717277.0112565 7.2717277z" fill="#fff"/></svg>

<?xml version="1.0" encoding="UTF-8"?>
<svg width="32px" height="32px" viewBox="0 0 32 32" version="1.1" xmlns="http://www.w3.org/2000/svg" xmlns:xlink="http://www.w3.org/1999/xlink">
    <!-- Generator: Sketch 50 (54983) - http://www.bohemiancoding.com/sketch -->
    <title>white/colx</title>
    <desc>Created with Sketch.</desc>
    <defs></defs>
    <g id="white/colx" stroke="none" stroke-width="1" fill="none" fill-rule="evenodd">
        <path d="M16,32 C7.163444,32 0,24.836556 0,16 C0,7.163444 7.163444,0 16,0 C24.836556,0 32,7.163444 32,16 C32,24.836556 24.836556,32 16,32 Z M25.6782723,13.2829843 L23.9897906,11.5945026 C23.4719895,11.0767016 22.7853403,10.795288 22.0536649,10.795288 L21.7947644,10.795288 L21.7947644,10.5251309 C21.7947644,10.052356 21.682199,9.60209424 21.4458115,9.19685864 C21.3219895,8.9604712 21.1643979,8.74659686 20.9730366,8.56649215 L19.284555,6.87801047 C18.7667539,6.36020942 18.0801047,6.07879581 17.3484293,6.07879581 L9.57015707,6.07879581 C8.83848168,6.07879581 8.15183246,6.36020942 7.63403141,6.87801047 L5.94554974,8.56649215 C5.42774869,9.07303665 5.14633508,9.75968586 5.14633508,10.4913613 L5.1013089,17.7856021 C5.09005236,18.5172775 5.38272251,19.2264398 5.90052356,19.7442408 L7.58900524,21.4327225 C8.10680628,21.9505236 8.7934555,22.2319372 9.52513089,22.2319372 L9.82905759,22.2319372 L9.82905759,22.5020942 C9.82905759,22.9748691 9.94162304,23.4251309 10.1780105,23.8303665 C10.3018325,24.0667539 10.4594241,24.2806283 10.6507853,24.460733 L12.339267,26.1492147 C12.8570681,26.6670157 13.5437173,26.9484293 14.2753927,26.9484293 L22.0649215,26.9484293 C22.7965969,26.9484293 23.4832461,26.6670157 24.0010471,26.1492147 L25.6895288,24.460733 C26.2073298,23.9429319 26.4887435,23.2562827 26.4887435,22.5246073 L26.4887435,15.2078534 C26.4774869,14.476178 26.1960733,13.7895288 25.6782723,13.2829843 Z M9.52513089,19.7554974 C9.44633508,19.7554974 9.37879581,19.7217277 9.33376963,19.6767016 L8.4895288,18.8324607 L7.64528796,17.9882199 C7.63403141,17.9769634 7.62277487,17.9657068 7.61151832,17.9431937 C7.58900524,17.9094241 7.57774869,17.8756545 7.56649215,17.8418848 C7.56649215,17.8193717 7.56649215,17.8081152 7.56649215,17.7856021 L7.56649215,10.5026178 C7.56649215,10.423822 7.60026178,10.3562827 7.64528796,10.3112565 L9.33376963,8.62277487 C9.35628272,8.60026178 9.37879581,8.58900524 9.4013089,8.57774869 C9.44633508,8.5552356 9.49136126,8.54397906 9.53638743,8.54397906 L17.3259162,8.54397906 C17.3709424,8.54397906 17.404712,8.5552356 17.4497382,8.57774869 C17.4835079,8.58900524 17.5060209,8.61151832 17.528534,8.63403141 L19.2170157,10.3225131 C19.2395288,10.3450262 19.2620419,10.3675393 19.2732984,10.4013089 C19.284555,10.4125654 19.284555,10.423822 19.284555,10.4350785 C19.284555,10.4463351 19.2958115,10.4575916 19.2958115,10.4688482 C19.2958115,10.4801047 19.3070681,10.5138743 19.3070681,10.5363874 L19.3070681,10.8965969 C19.3070681,11.0541885 19.1832461,11.1667539 19.036911,11.1667539 L17.6861257,11.1667539 C17.6073298,11.1667539 17.5397906,11.1329843 17.4947644,11.0879581 L16.7293194,10.3225131 L10.1329843,10.3225131 L9.85157068,10.6039267 L9.46884817,10.9866492 L9.46884817,17.3240838 L10.1329843,17.9882199 L16.7180628,17.9882199 L17.4835079,17.2115183 C17.4835079,17.2115183 17.4947644,17.2002618 17.4947644,17.2002618 C17.5172775,17.1890052 17.5397906,17.1664921 17.5623037,17.1552356 C17.5960733,17.1327225 17.6410995,17.1327225 17.6748691,17.1327225 L19.0256545,17.1327225 C19.1157068,17.1327225 19.1945026,17.1777487 19.2507853,17.245288 C19.284555,17.2903141 19.3070681,17.3465969 19.3070681,17.4028796 L19.3070681,17.7856021 C19.3070681,17.8643979 19.2732984,17.9319372 19.2282723,17.9769634 L18.3840314,18.8212042 L17.5397906,19.665445 C17.528534,19.6767016 17.5060209,19.6879581 17.4947644,19.6992147 C17.4947644,19.6992147 17.4835079,19.7104712 17.4722513,19.7104712 C17.4609948,19.7217277 17.4497382,19.7217277 17.4384817,19.7217277 C17.4272251,19.7217277 17.4272251,19.7217277 17.4159686,19.7329843 C17.404712,19.7329843 17.3934555,19.7442408 17.382199,19.7442408 C17.382199,19.7442408 17.3709424,19.7442408 17.3709424,19.7442408 C17.3596859,19.7442408 17.3596859,19.7442408 17.3484293,19.7442408 C17.3371728,19.7442408 17.3259162,19.7442408 17.3146597,19.7442408 L9.52513089,19.7442408 L9.52513089,19.7554974 Z M24.0235602,22.5020942 C24.0235602,22.5808901 23.9897906,22.6484293 23.9447644,22.6934555 L22.2562827,24.3819372 C22.2337696,24.4044503 22.2112565,24.4157068 22.1887435,24.4269634 C22.1437173,24.4494764 22.0986911,24.460733 22.0536649,24.460733 L14.2641361,24.460733 C14.2191099,24.460733 14.1853403,24.4494764 14.1403141,24.4269634 C14.1065445,24.4157068 14.0840314,24.3931937 14.0615183,24.3706806 L12.3730366,22.682199 C12.3505236,22.6596859 12.3280105,22.6371728 12.3167539,22.6034031 C12.3054974,22.5921466 12.3054974,22.5808901 12.3054974,22.5696335 C12.3054974,22.558377 12.2942408,22.5471204 12.2942408,22.5358639 C12.2942408,22.5246073 12.2829843,22.4908377 12.2829843,22.4683246 L12.2829843,22.1081152 C12.2829843,21.9505236 12.4068063,21.8379581 12.5531414,21.8379581 L13.9039267,21.8379581 C13.9827225,21.8379581 14.0502618,21.8717277 14.095288,21.9167539 L14.860733,22.682199 L21.4458115,22.682199 L21.7272251,22.4007853 L22.1099476,22.0180628 L22.1099476,15.6806283 L21.4458115,15.0164921 L14.8719895,15.0164921 L14.1065445,15.7931937 C14.1065445,15.7931937 14.095288,15.8044503 14.095288,15.8044503 C14.0727749,15.8157068 14.0502618,15.8382199 14.0277487,15.8494764 C13.9939791,15.8719895 13.9489529,15.8719895 13.9151832,15.8719895 L12.5643979,15.8719895 C12.4743455,15.8719895 12.3955497,15.8269634 12.339267,15.7594241 C12.3054974,15.7143979 12.2829843,15.6581152 12.2829843,15.6018325 L12.2829843,15.2191099 C12.2829843,15.1403141 12.3167539,15.0727749 12.3617801,15.0277487 L13.2060209,14.1835079 L14.0502618,13.339267 C14.0615183,13.3280105 14.0840314,13.3167539 14.095288,13.3054974 C14.095288,13.3054974 14.1065445,13.2942408 14.117801,13.2942408 C14.1290576,13.2829843 14.1403141,13.2829843 14.1515707,13.2829843 C14.1628272,13.2829843 14.1628272,13.2829843 14.1740838,13.2717277 C14.1853403,13.2717277 14.1965969,13.2604712 14.2078534,13.2604712 C14.2078534,13.2604712 14.2191099,13.2604712 14.2191099,13.2604712 C14.2303665,13.2604712 14.2303665,13.2604712 14.241623,13.2604712 C14.2528796,13.2604712 14.2641361,13.2604712 14.2753927,13.2604712 L22.0536649,13.2604712 C22.1324607,13.2604712 22.2,13.2942408 22.2450262,13.339267 L23.089267,14.1835079 L23.9335079,15.0277487 C23.9447644,15.0390052 23.9560209,15.0502618 23.9672775,15.0727749 C23.9897906,15.1065445 24.0010471,15.1403141 24.0123037,15.1740838 C24.0123037,15.1965969 24.0123037,15.2078534 24.0123037,15.2303665 C24.0235602,15.2078534 24.0235602,22.5020942 24.0235602,22.5020942 Z" id="Combined-Shape" fill="#FFFFFF" fill-rule="nonzero"></path>
        <g id="ColossusXT-(COLX)" transform="translate(5.000000, 6.000000)"></g>
    </g>
</svg>
